dist/img/icons/paypal.svg

<svg width="56" height="16" viewBox="0 0 56 16" fill="none" xmlns="http://www.w3.org/2000/svg">
<path fill-rule="evenodd" clip-rule="evenodd" d="M7.59696 0.876074C9.3972 0.876074 11.0639 1.85571 10.8349 4.29207C10.5613 7.18645 9.00916 8.78949 6.56008 8.79585H4.42269C4.11735 8.79585 3.96468 9.04394 3.88834 9.5592L3.47486 12.1864C3.41125 12.5808 3.20769 12.778 2.90871 12.778H0.91763C0.599566 12.778 0.491424 12.5744 0.561398 12.1228L2.20261 1.58217C2.2853 1.06055 2.47614 0.869713 2.83237 0.869713H7.59696V0.876074ZM4.35272 6.51852H5.97484C6.98628 6.48035 7.66058 5.78061 7.73055 4.51472C7.76872 3.73228 7.24073 3.17249 6.40104 3.17885L4.87434 3.18521L4.35272 6.51852ZM16.2419 11.9765C16.4264 11.8111 16.6109 11.7284 16.5854 11.932L16.5218 12.4218C16.49 12.6762 16.5918 12.8098 16.8272 12.8098H18.5956C18.8946 12.8098 19.0409 12.6889 19.1109 12.2309L20.1986 5.39257C20.2559 5.04907 20.1668 4.88367 19.906 4.88367H17.9595C17.7814 4.88367 17.6987 4.97909 17.6541 5.24626L17.5842 5.66611C17.546 5.88239 17.4442 5.92692 17.3552 5.70428C17.0244 4.92184 16.1847 4.57197 15.0078 4.60378C12.2789 4.66103 10.4468 6.72844 10.2496 9.38109C10.0969 11.4358 11.5664 13.0452 13.5066 13.0452C14.9124 13.0388 15.5422 12.6253 16.2419 11.9765ZM14.7598 10.9269C13.5893 10.9269 12.7687 9.99177 12.9404 8.84038C13.1122 7.69535 14.2063 6.75388 15.3832 6.75388C16.56 6.75388 17.3742 7.68899 17.2025 8.84038C17.0307 9.98541 15.9366 10.9269 14.7598 10.9269ZM23.6528 4.85823H21.8589C21.49 4.85823 21.3373 5.13176 21.4582 5.47527L23.6846 11.9892L21.5027 15.0871C21.3182 15.348 21.4645 15.5833 21.719 15.5833H23.7355C23.761 15.5833 23.78 15.5897 23.8055 15.5897C24.0218 15.5897 24.219 15.4752 24.3335 15.2907L31.1782 5.47527C31.3881 5.17629 31.2927 4.85823 30.9428 4.85823H29.0344C28.71 4.85823 28.5764 4.98545 28.392 5.25899L25.5357 9.39381L24.2635 5.24626C24.1872 4.99181 24.0027 4.85823 23.6528 4.85823Z" fill="#0B002E"/>
<path fill-rule="evenodd" clip-rule="evenodd" d="M38.2903 0.876074C40.0906 0.876074 41.7572 1.85571 41.5282 4.29208C41.2547 7.18645 39.7025 8.78949 37.2534 8.79585H35.116C34.8107 8.79585 34.658 9.04394 34.5817 9.55921L34.1682 12.1864C34.1046 12.5808 33.901 12.778 33.6021 12.778H31.611C31.2929 12.778 31.1848 12.5744 31.2548 12.1228L32.9023 1.58217C32.985 1.06691 33.1759 0.869713 33.5321 0.869713L38.2903 0.876074ZM35.0524 6.51852H36.6746C37.686 6.48035 38.3603 5.78061 38.4303 4.51472C38.4684 3.73228 37.9405 3.17249 37.1008 3.17885L35.5741 3.18521L35.0524 6.51852ZM46.9353 11.9765C47.1198 11.8111 47.3042 11.7284 47.2788 11.932L47.2152 12.4218C47.1834 12.6762 47.2852 12.8098 47.5205 12.8098H49.289C49.5879 12.8098 49.7342 12.689 49.8042 12.2309L50.892 5.39257C50.9492 5.04907 50.8602 4.88367 50.5994 4.88367H48.6592C48.4811 4.88367 48.3984 4.97909 48.3539 5.24627L48.2839 5.66611C48.2457 5.88239 48.1439 5.92692 48.0549 5.70428C47.7241 4.92184 46.8844 4.57197 45.7139 4.60378C42.9849 4.66103 41.1529 6.72844 40.9557 9.38109C40.803 11.4358 42.2725 13.0452 44.2127 13.0452C45.6185 13.0452 46.2483 12.6317 46.9544 11.9829L46.9353 11.9765ZM45.4595 10.9269C44.289 10.9269 43.4684 9.99177 43.6402 8.84038C43.8119 7.69535 44.906 6.75389 46.0829 6.75389C47.2534 6.75389 48.074 7.68899 47.9022 8.84038C47.7304 9.98541 46.6299 10.9269 45.4595 10.9269ZM53.6083 12.8162H51.5663C51.5599 12.8162 51.5599 12.8162 51.5536 12.8162C51.42 12.8162 51.3118 12.708 51.3118 12.5744C51.3118 12.5617 51.3118 12.549 51.3118 12.5426L53.1057 1.18778C53.1439 1.02874 53.2838 0.914242 53.4429 0.914242H55.4848C55.4912 0.914242 55.4912 0.914242 55.4976 0.914242C55.6311 0.914242 55.7393 1.02238 55.7393 1.15597C55.7393 1.16869 55.7393 1.18141 55.7393 1.18778L53.9454 12.5426C53.9136 12.7017 53.7736 12.8162 53.6083 12.8162Z" fill="#0B002E"/>
</svg>

<svg width="56" height="16" viewBox="0 0 56 16" fill="none" xmlns="http://www.w3.org/2000/svg"><path fill-rule="evenodd" clip-rule="evenodd" d="M7.597.876c1.8 0 3.467.98 3.238 3.416C10.56 7.186 9.009 8.79 6.56 8.796H4.423c-.306 0-.458.248-.535.763l-.413 2.627c-.064.395-.267.592-.566.592H.918c-.318 0-.427-.204-.357-.655l1.642-10.54c.082-.522.273-.713.63-.713h4.764v.006zM4.353 6.52h1.622c1.011-.04 1.685-.74 1.755-2.005.038-.783-.49-1.343-1.33-1.336l-1.527.006-.521 3.334zm11.889 5.457c.184-.165.369-.248.343-.044l-.063.49c-.032.254.07.388.305.388h1.769c.299 0 .445-.121.515-.58l1.088-6.837c.057-.344-.032-.51-.293-.51h-1.947c-.178 0-.26.096-.305.363l-.07.42c-.038.216-.14.26-.229.038-.33-.782-1.17-1.132-2.347-1.1-2.73.057-4.561 2.124-4.758 4.777-.153 2.055 1.316 3.664 3.257 3.664 1.405-.006 2.035-.42 2.735-1.069zm-1.482-1.05c-1.17 0-1.991-.934-1.82-2.086.172-1.145 1.266-2.086 2.443-2.086s1.991.935 1.82 2.086c-.172 1.145-1.266 2.087-2.443 2.087zm8.893-6.068h-1.794c-.369 0-.522.274-.4.617l2.226 6.514-2.182 3.098c-.185.261-.038.496.216.496h2.016c.026 0 .045.007.07.007a.622.622 0 00.529-.3l6.844-9.815c.21-.299.115-.617-.235-.617h-1.909c-.324 0-.458.127-.642.401l-2.856 4.135-1.273-4.148c-.076-.254-.26-.388-.61-.388zM38.29.876c1.8 0 3.467.98 3.238 3.416-.273 2.894-1.825 4.497-4.275 4.504h-2.137c-.305 0-.458.248-.534.763l-.414 2.627c-.063.395-.267.592-.566.592h-1.991c-.318 0-.426-.204-.356-.655l1.647-10.54c.083-.516.274-.713.63-.713l4.758.006zM35.052 6.52h1.623c1.011-.039 1.685-.738 1.755-2.004.038-.783-.49-1.343-1.33-1.336l-1.526.006-.522 3.334zm11.883 5.457c.185-.165.37-.248.344-.044l-.064.49c-.032.254.07.388.305.388h1.769c.299 0 .445-.121.515-.58l1.088-6.837c.057-.344-.032-.51-.293-.51h-1.94c-.178 0-.26.096-.305.363l-.07.42c-.038.216-.14.26-.23.038-.33-.782-1.17-1.132-2.34-1.1-2.73.057-4.561 2.124-4.758 4.777-.153 2.055 1.316 3.664 3.257 3.664 1.405 0 2.035-.413 2.741-1.062l-.019-.007zm-1.476-1.05c-1.17 0-1.99-.934-1.819-2.086.172-1.145 1.266-2.086 2.443-2.086 1.17 0 1.991.935 1.82 2.086-.173 1.145-1.273 2.087-2.444 2.087zm8.15 1.89h-2.055a.242.242 0 01-.242-.242v-.031l1.794-11.355a.352.352 0 01.337-.274h2.055c.133 0 .241.108.241.242v.032l-1.794 11.355a.341.341 0 01-.337.273z" fill="#0B002E"/></svg>
